public/avatar/body/196.svg

<svg xmlns:xlink="http://www.w3.org/1999/xlink" height="82" width="84.85" xmlns="http://www.w3.org/2000/svg"><g transform="translate(37.4 42.25)"><use height="43.25" transform="matrix(-1.0012 -.34 -.3211 .9456 47.47 -27.349)" width="43.85" xlink:href="#a"/><use height="38" transform="translate(-11.95 -17.45)" width="32.05" xlink:href="#b"/><use height="38.95" transform="translate(-12.45 -17.95)" width="33.05" xlink:href="#c"/><use height="27.6" transform="translate(-16.65 -8.05)" width="42.9" xlink:href="#d"/></g><defs><use height="43.25" width="43.85" xlink:href="#e" id="a"/><use height="38" width="32.05" xlink:href="#f" id="b"/><use height="38.95" width="33.05" xlink:href="#g" id="c"/><path d="M27.35 7.4q2.15 4.15 3.55 8.75 1.45 4.7 1.15 9.5-.35 4.95-4.2 8.1-3.8 3.2-8.75 4.05l-2.6.2q-3.6 0-7.05-1.15-4.65-1.6-7.1-5.5Q-.2 27.4.05 23q.2-4.4 2-9.3Q3.85 8.75 7 5.05 10.1 1.3 14.7.1l1.8-.1q1.9.05 3.7.8 4.75 2.05 7.15 6.6" fill="#fff" fill-rule="evenodd" transform="translate(-.05)" id="f"/><path d="M27.35 7.4Q24.95 2.85 20.2.8 17.55-.3 14.7.1 10.1 1.3 7 5.05q-3.15 3.7-4.95 8.65-1.8 4.9-2 9.3-.25 4.4 2.3 8.35 2.45 3.9 7.1 5.5 4.65 1.55 9.65.95 4.95-.85 8.75-4.05 3.85-3.15 4.2-8.1.3-4.8-1.15-9.5-1.4-4.6-3.55-8.75Z" fill="none" stroke="#000" stroke-linecap="round" stroke-linejoin="round" transform="translate(.45 .5)" id="g"/><g id="e" fill-rule="evenodd"><path d="M44 13.1q-.75 3.55-6.1 6.7-5.55 3.2-14 5-8.45 1.8-14.65 1.05-6.2-.75-8.2-3.75Q-.3 20.05.7 17.6l.5-.95h.05q1.4-2.35 4.95-4.5v-.05l11.25-8.25.1-.05v-.1q.1-1.1.35-1.75.6-1.5 2.2-1.7Q22.2.1 23 2.8l.1.1.1.05 15.9 3.7.05.05 2.7 1.4q2.75 1.95 2.15 5" fill="#1c191d" transform="translate(-.25 -.25)"/><path d="M38.85 7.55 4.4 14.8 20.2 3.2l18.65 4.35" fill="#fff9f6" transform="translate(-.25 -.25)"/><path d="M43.6 12.75q-.65 3.4-6.05 6.45-5.35 3.05-13.6 4.8-8.2 1.75-14.3 1.1-6.1-.65-8-3.5-1.45-2.2.2-4.85Q3.6 13.9 8.9 11.2q5.2-2.65 11.8-4.05 6.5-1.4 12.4-1.05 5.85.35 8.55 2.25 2.5 1.8 1.95 4.4" fill="#1c191d" transform="translate(-.25 -.25)"/><path d="M41.3 8.85q4.2 3-.65 7.45-5.15 4.7-16.8 7.15t-18.15.2q-6.15-2.15-3.4-6.6 1.75-2.85 7.1-5.5Q14.55 9 20.8 7.7q6.25-1.3 11.9-1.05 5.95.25 8.6 2.2" fill="#d4d2d4" transform="translate(-.25 -.25)"/><path d="M9.55 12.8q2.4-3.4 11.2-5.2 8.8-1.8 12.3.25 2.5 1.55-.5 3.95-3.15 2.55-10.2 4.05l-10.9.35q-3.65-1-1.9-3.4" fill="#a7a7a7" transform="translate(-.25 -.25)"/><path d="M20.95 5.5q-2.55.55-5.35 1.7l-2.25 1.05 3.35-2.5 3.8-1.3 4.3-.2 3.8.9-7.65.35" fill="red" transform="translate(-.25 -.25)"/><path d="M18.65 4.3q-.15-3 1.5-3.15 1.7-.1 2 2.45l-3.5.7" fill="#fff9f6" transform="translate(-.25 -.25)"/><path d="m26.25 6.85 1.25-.2L40.2 16.9l-.6.75-13.35-10.8M24 7.1l1.15-.15 11.5 11.7-.65.7L24 7.1m-1 .1.9-.1 7.9 14.5-.8.5-8-14.9m3.75 16.05-.85.25-3.85-16.1.85-.2 3.85 16.05M43.3 12.6l-.35.85L27.7 6.7l2.05-.1 13.55 6M14.6 9.4l1.4-.45L6.05 23.8l-.9-.35L14.6 9.4m2.6-.85 1.1-.3-8.35 16.3-1-.1 8.25-15.9m1.3-.35.95-.2-3.35 16.6-.95.05L18.5 8.2m1-.25.9-.2.95 16.6-.9.1-.95-16.5m-7.95 2.6 2.6-1.05-12.4 11.1-.25-1 10.05-9.05" fill="#4c281e" transform="translate(-.25 -.25)"/><path d="m26.05 43.5-5.5-35.8L22 7.4l5.5 35.85-1.45.25" fill="#3a281e" transform="translate(-.25 -.25)"/><path d="m22.95 19.8 14.3-9.9.25 1.05-13.95 9.55-.6-.7" fill="#623826" transform="translate(-.25 -.25)"/><path d="m23 19.5 12.95-6.05-.1 1.1-12.45 5.8-.4-.85" fill="#623826" transform="translate(-.25 -.25)"/><path d="m22.65 19.6 11.2-3.85-.2 1.1L23 20.5l-.35-.9" fill="#623826" transform="translate(-.25 -.25)"/><path d="m33.15 6.6 1 .15-10.1 13.35-.8-.5 9.9-13" fill="#623826" transform="translate(-.25 -.25)"/><path d="m26.7 6.75.85-.05-3.6 14.05-.95-.15 3.7-13.85" fill="#623826" transform="translate(-.25 -.25)"/><path d="m23.5 19.7-.05.95L3.9 18.7l-.3-1 19.9 2" fill="#623826" transform="translate(-.25 -.25)"/><path d="m26.1 18.4.1.95L7.35 21.8l-.6-.8 19.35-2.6" fill="#623826" transform="translate(-.25 -.25)"/><path d="m23.1 19.45.2.95-7.55 1.1-.15-.9 7.5-1.15" fill="#623826" transform="translate(-.25 -.25)"/><path d="m22.4 19.85-.45.85L6.9 12.9l.95-.6 14.55 7.55" fill="#623826" transform="translate(-.25 -.25)"/><path d="m23.4 19.85-.65.65-9.3-10.7.9-.35 9.05 10.4" fill="#623826" transform="translate(-.25 -.25)"/></g><g id="d" fill-rule="evenodd"><path d="M19.4 4.4q.8 5.6-2.85 10.2-3.65 4.55-11.65 4.45h-.85q3.7-1.9 4.55-10.25.4-4.05.75-5.1Q10 1.65 11.6 2q2.8.6 7.8 2.4" fill="#d4d2d4" transform="translate(16.65 8.05)"/><path d="m17.35 4.7 2.2-.35q.75 6.6-2.95 10.95T5.05 19.55H4.2q6.5-1.85 7.75-4.7 1.2-2.9 2.6-4.45 1.4-1.6 1.35-3.8-.1-2.25 1.45-1.9" fill="#a7a7a7" transform="translate(16.65 8.05)"/><path d="m2.35 10.7-6.1-.5q-2.3-.35-2.55-1.35-.35-1.1 2.15-1.95L4.3 5.7Q8 5.4 8.35 5q1.9-1.9 3.2-.7l1.5 2.2q.9 1.45.65 2.25-.55 1.9-3.05 2L8.2 10.7H2.35" fill="#fff" transform="translate(16.65 8.05)"/><path d="M1.75 12.45q-1.3 1-2.85 1l-3.25-.4Q-6.3 12-6.35 11q-.05-1.25 3.3-.15 1.05.35 7.6-.05h6q.85.2 1.05 1.4.15 1.15-.75 1.5l-.3.5q-.9 0-4.1-1.65-1.45-.85-1.9-.95-1.35-.25-2.8.85" fill="#d4d2d4" transform="translate(16.65 8.05)"/><path d="M1.65 12.95q0 2.8 2.8 2.8t2.8-2.8q0-2.8-2.8-2.8t-2.8 2.8M1.4 9.9q1.25-1.3 3.05-1.3 1.8 0 3.1 1.3 1.25 1.25 1.25 3.05 0 1.8-1.25 3.1-1.3 1.25-3.1 1.25T1.4 16.05q-1.3-1.3-1.3-3.1T1.4 9.9" fill="red" transform="translate(16.65 8.05)"/><path d="M4.4 11.35q1.6 0 1.6 1.6t-1.6 1.6q-1.6 0-1.6-1.6t1.6-1.6m2.85-3.2h1.6v5h-1.6v-5" fill="red" transform="translate(16.65 8.05)"/><path d="M7.25 7.4h3.15V9H7.25V7.4M1.7 8.95h-3.15v-1.6H1.7v1.6" fill="red" transform="translate(16.65 8.05)"/><path d="M.05 8.15H1.7v5H.05v-5m3.5-2.25H5.2v3.65H3.55V5.9" fill="red" transform="translate(16.65 8.05)"/><path d="M-14.9 1.85q.5-.45 6.15 0l5.5.6-13.4 3.85q1-3.7 1.75-4.45" fill="#1c191d" transform="translate(16.65 8.05)"/><path d="m-13.75 2.55 7.35.2-8.55 2.1q.5-2.05 1.2-2.3" fill="#fff" transform="translate(16.65 8.05)"/><path d="M15.75-8q.8 1.3 2.7 6.4 1.3 3.4 1.05 3.45l-4.8.35q1.25-1.1 1.5-2.1l.05-2.7-.15-2.85L15.75-8" fill="#d4d2d4" transform="translate(16.65 8.05)"/><path d="m12.9 2.25 5.55-.4L24.6 2q.75.8 1.65 4.5L12.9 2.25" fill="#1c191d" transform="translate(16.65 8.05)"/><path d="m16.05 2.65 7.4.05q1 1 1.1 2.35l-8.5-2.4" fill="#fff" transform="translate(16.65 8.05)"/><path d="m-13.4 4.5-1.65.4q.5-1.9 1.15-2.25l1.75-.1-1.25 1.95m36.8-1.8q.75.25 1.15 2.35L22.9 4.6l-1.25-2.05 1.75.15" fill="red" transform="translate(16.65 8.05)"/></g></defs></svg>

<?xml version="1.0" encoding="UTF-8" standalone="no"?>
<svg xmlns:xlink="http://www.w3.org/1999/xlink" height="82.0px" width="84.85px" xmlns="http://www.w3.org/2000/svg">
  <g transform="matrix(1.0, 0.0, 0.0, 1.0, 37.4, 42.25)">
    <use height="43.25" transform="matrix(-1.0012, -0.34, -0.3211, 0.9456, 47.4694, -27.3486)" width="43.85" xlink:href="#sprite0"/>
    <use height="38.0" transform="matrix(1.0, 0.0, 0.0, 1.0, -11.95, -17.45)" width="32.05" xlink:href="#sprite1"/>
    <use height="38.95" transform="matrix(1.0, 0.0, 0.0, 1.0, -12.45, -17.95)" width="33.05" xlink:href="#sprite2"/>
    <use height="27.6" transform="matrix(1.0, 0.0, 0.0, 1.0, -16.65, -8.05)" width="42.9" xlink:href="#shape3"/>
  </g>
  <defs>
    <g id="sprite0" transform="matrix(1.0, 0.0, 0.0, 1.0, -0.25, -0.25)">
      <use height="43.25" transform="matrix(1.0, 0.0, 0.0, 1.0, 0.25, 0.25)" width="43.85" xlink:href="#shape0"/>
    </g>
    <g id="shape0" transform="matrix(1.0, 0.0, 0.0, 1.0, -0.25, -0.25)">
      <path d="M44.0 13.1 Q43.25 16.65 37.9 19.8 32.35 23.0 23.9 24.8 15.45 26.6 9.25 25.85 3.05 25.1 1.05 22.1 -0.3 20.05 0.7 17.6 L1.2 16.65 1.25 16.65 Q2.65 14.3 6.2 12.15 L6.2 12.1 17.45 3.85 17.55 3.8 17.55 3.7 Q17.65 2.6 17.9 1.95 18.5 0.45 20.1 0.25 22.2 0.1 23.0 2.8 L23.1 2.9 23.2 2.95 39.1 6.65 39.15 6.7 41.85 8.1 Q44.6 10.05 44.0 13.1" fill="#1c191d" fill-rule="evenodd" stroke="none"/>
      <path d="M38.85 7.55 L4.4 14.8 20.2 3.2 38.85 7.55" fill="#fff9f6" fill-rule="evenodd" stroke="none"/>
      <path d="M43.6 12.75 Q42.95 16.15 37.55 19.2 32.2 22.25 23.95 24.0 15.75 25.75 9.65 25.1 3.55 24.45 1.65 21.6 0.2 19.4 1.85 16.75 3.6 13.9 8.9 11.2 14.1 8.55 20.7 7.15 27.2 5.75 33.1 6.1 38.95 6.45 41.65 8.35 44.15 10.15 43.6 12.75" fill="#1c191d" fill-rule="evenodd" stroke="none"/>
      <path d="M41.3 8.85 Q45.5 11.85 40.65 16.3 35.5 21.0 23.85 23.45 12.2 25.9 5.7 23.65 -0.45 21.5 2.3 17.05 4.05 14.2 9.4 11.55 14.55 9.0 20.8 7.7 27.05 6.4 32.7 6.65 38.65 6.9 41.3 8.85" fill="#d4d2d4" fill-rule="evenodd" stroke="none"/>
      <path d="M9.55 12.8 Q11.95 9.4 20.75 7.6 29.55 5.8 33.05 7.85 35.55 9.4 32.55 11.8 29.4 14.35 22.35 15.85 L11.45 16.2 Q7.8 15.2 9.55 12.8" fill="#a7a7a7" fill-rule="evenodd" stroke="none"/>
      <path d="M20.95 5.5 Q18.4 6.05 15.6 7.2 L13.35 8.25 16.7 5.75 20.5 4.45 24.8 4.25 28.6 5.15 20.95 5.5" fill="#ff0000" fill-rule="evenodd" stroke="none"/>
      <path d="M18.65 4.3 Q18.5 1.3 20.15 1.15 21.85 1.05 22.15 3.6 L18.65 4.3" fill="#fff9f6" fill-rule="evenodd" stroke="none"/>
      <path d="M26.25 6.85 L27.5 6.65 40.2 16.9 39.6 17.65 26.25 6.85" fill="#4c281e" fill-rule="evenodd" stroke="none"/>
      <path d="M24.0 7.1 L25.15 6.95 36.65 18.65 36.0 19.35 24.0 7.1" fill="#4c281e" fill-rule="evenodd" stroke="none"/>
      <path d="M23.0 7.2 L23.9 7.1 31.8 21.6 31.0 22.1 23.0 7.2" fill="#4c281e" fill-rule="evenodd" stroke="none"/>
      <path d="M26.75 23.25 L25.9 23.5 22.05 7.4 22.9 7.2 26.75 23.25" fill="#4c281e" fill-rule="evenodd" stroke="none"/>
      <path d="M43.3 12.6 L42.95 13.45 27.7 6.7 29.75 6.6 43.3 12.6" fill="#4c281e" fill-rule="evenodd" stroke="none"/>
      <path d="M14.6 9.4 L16.0 8.95 6.05 23.8 5.15 23.45 14.6 9.4" fill="#4c281e" fill-rule="evenodd" stroke="none"/>
      <path d="M17.2 8.55 L18.3 8.25 9.95 24.55 8.95 24.45 17.2 8.55" fill="#4c281e" fill-rule="evenodd" stroke="none"/>
      <path d="M18.5 8.2 L19.45 8.0 16.1 24.6 15.15 24.65 18.5 8.2" fill="#4c281e" fill-rule="evenodd" stroke="none"/>
      <path d="M19.5 7.95 L20.4 7.75 21.35 24.35 20.45 24.45 19.5 7.95" fill="#4c281e" fill-rule="evenodd" stroke="none"/>
      <path d="M11.55 10.55 L14.15 9.5 1.75 20.6 1.5 19.6 11.55 10.55" fill="#4c281e" fill-rule="evenodd" stroke="none"/>
      <path d="M26.05 43.5 L20.55 7.7 22.0 7.4 27.5 43.25 26.05 43.5" fill="#3a281e" fill-rule="evenodd" stroke="none"/>
      <path d="M22.95 19.8 L37.25 9.9 37.5 10.95 23.55 20.5 22.95 19.8" fill="#623826" fill-rule="evenodd" stroke="none"/>
      <path d="M23.0 19.5 L35.95 13.45 35.85 14.55 23.4 20.35 23.0 19.5" fill="#623826" fill-rule="evenodd" stroke="none"/>
      <path d="M22.65 19.6 L33.85 15.75 33.65 16.85 23.0 20.5 22.65 19.6" fill="#623826" fill-rule="evenodd" stroke="none"/>
      <path d="M33.15 6.6 L34.15 6.75 24.05 20.1 23.25 19.6 33.15 6.6" fill="#623826" fill-rule="evenodd" stroke="none"/>
      <path d="M26.7 6.75 L27.55 6.7 23.95 20.75 23.0 20.6 26.7 6.75" fill="#623826" fill-rule="evenodd" stroke="none"/>
      <path d="M23.5 19.7 L23.45 20.65 3.9 18.7 3.6 17.7 23.5 19.7" fill="#623826" fill-rule="evenodd" stroke="none"/>
      <path d="M26.1 18.4 L26.2 19.35 7.35 21.8 6.75 21.0 26.1 18.4" fill="#623826" fill-rule="evenodd" stroke="none"/>
      <path d="M23.1 19.45 L23.3 20.4 15.75 21.5 15.6 20.6 23.1 19.45" fill="#623826" fill-rule="evenodd" stroke="none"/>
      <path d="M22.4 19.85 L21.95 20.7 6.9 12.9 7.85 12.3 22.4 19.85" fill="#623826" fill-rule="evenodd" stroke="none"/>
      <path d="M23.4 19.85 L22.75 20.5 13.45 9.8 14.35 9.45 23.4 19.85" fill="#623826" fill-rule="evenodd" stroke="none"/>
    </g>
    <g id="sprite1" transform="matrix(1.0, 0.0, 0.0, 1.0, -0.05, 0.0)">
      <use height="38.0" transform="matrix(1.0, 0.0, 0.0, 1.0, 0.05, 0.0)" width="32.05" xlink:href="#shape1"/>
    </g>
    <g id="shape1" transform="matrix(1.0, 0.0, 0.0, 1.0, -0.05, 0.0)">
      <path d="M27.35 7.4 Q29.5 11.55 30.9 16.15 32.35 20.85 32.05 25.65 31.7 30.6 27.85 33.75 24.05 36.95 19.1 37.8 L16.5 38.0 Q12.9 38.0 9.45 36.85 4.8 35.25 2.35 31.35 -0.2 27.4 0.05 23.0 0.25 18.6 2.05 13.7 3.85 8.75 7.0 5.05 10.1 1.3 14.7 0.1 L16.5 0.0 Q18.4 0.05 20.2 0.8 24.95 2.85 27.35 7.4" fill="#ffffff" fill-rule="evenodd" stroke="none"/>
    </g>
    <g id="sprite2" transform="matrix(1.0, 0.0, 0.0, 1.0, 0.45, 0.5)">
      <use height="38.95" transform="matrix(1.0, 0.0, 0.0, 1.0, -0.45, -0.5)" width="33.05" xlink:href="#shape2"/>
    </g>
    <g id="shape2" transform="matrix(1.0, 0.0, 0.0, 1.0, 0.45, 0.5)">
      <path d="M27.35 7.4 Q24.95 2.85 20.2 0.8 17.55 -0.3 14.7 0.1 10.1 1.3 7.0 5.05 3.85 8.75 2.05 13.7 0.25 18.6 0.05 23.0 -0.2 27.4 2.35 31.35 4.8 35.25 9.45 36.85 14.1 38.4 19.1 37.8 24.05 36.95 27.85 33.75 31.7 30.6 32.05 25.65 32.35 20.85 30.9 16.15 29.5 11.55 27.35 7.4 Z" fill="none" stroke="#000000" stroke-linecap="round" stroke-linejoin="round" stroke-width="1.0"/>
    </g>
    <g id="shape3" transform="matrix(1.0, 0.0, 0.0, 1.0, 16.65, 8.05)">
      <path d="M19.4 4.4 Q20.2 10.0 16.55 14.6 12.9 19.15 4.9 19.05 L4.05 19.05 Q7.75 17.15 8.6 8.8 9.0 4.75 9.35 3.7 10.0 1.65 11.6 2.0 14.4 2.6 19.4 4.4" fill="#d4d2d4" fill-rule="evenodd" stroke="none"/>
      <path d="M17.35 4.7 L19.55 4.35 Q20.3 10.95 16.6 15.3 12.9 19.65 5.05 19.55 L4.2 19.55 Q10.7 17.7 11.95 14.85 13.15 11.95 14.55 10.4 15.95 8.8 15.9 6.6 15.8 4.35 17.35 4.7" fill="#a7a7a7" fill-rule="evenodd" stroke="none"/>
      <path d="M2.35 10.7 L-3.75 10.2 Q-6.05 9.85 -6.3 8.85 -6.65 7.75 -4.15 6.9 L4.3 5.7 Q8.0 5.4 8.35 5.0 10.25 3.1 11.55 4.3 L13.05 6.5 Q13.95 7.95 13.7 8.75 13.15 10.65 10.65 10.75 L8.2 10.7 2.35 10.7" fill="#ffffff" fill-rule="evenodd" stroke="none"/>
      <path d="M1.75 12.45 Q0.45 13.45 -1.1 13.45 L-4.35 13.05 Q-6.3 12.0 -6.35 11.0 -6.4 9.75 -3.05 10.85 -2.0 11.2 4.55 10.8 L10.55 10.8 Q11.4 11.0 11.6 12.2 11.75 13.35 10.85 13.7 L10.55 14.2 Q9.65 14.2 6.45 12.55 5.0 11.7 4.55 11.6 3.2 11.35 1.75 12.45" fill="#d4d2d4" fill-rule="evenodd" stroke="none"/>
      <path d="M1.65 12.95 Q1.65 15.75 4.45 15.75 7.25 15.75 7.25 12.95 7.25 10.15 4.45 10.15 1.65 10.15 1.65 12.95 M1.4 9.9 Q2.65 8.6 4.45 8.6 6.25 8.6 7.55 9.9 8.8 11.15 8.8 12.95 8.8 14.75 7.55 16.05 6.25 17.3 4.45 17.3 2.65 17.3 1.4 16.05 0.1 14.75 0.1 12.95 0.1 11.15 1.4 9.9" fill="#ff0000" fill-rule="evenodd" stroke="none"/>
      <path d="M4.4 11.35 Q6.0 11.35 6.0 12.95 6.0 14.55 4.4 14.55 2.8 14.55 2.8 12.95 2.8 11.35 4.4 11.35" fill="#ff0000" fill-rule="evenodd" stroke="none"/>
      <path d="M7.25 8.15 L8.85 8.15 8.85 13.15 7.25 13.15 7.25 8.15" fill="#ff0000" fill-rule="evenodd" stroke="none"/>
      <path d="M7.25 7.4 L10.4 7.4 10.4 9.0 7.25 9.0 7.25 7.4" fill="#ff0000" fill-rule="evenodd" stroke="none"/>
      <path d="M1.7 8.95 L-1.45 8.95 -1.45 7.35 1.7 7.35 1.7 8.95" fill="#ff0000" fill-rule="evenodd" stroke="none"/>
      <path d="M0.05 8.15 L1.7 8.15 1.7 13.15 0.05 13.15 0.05 8.15" fill="#ff0000" fill-rule="evenodd" stroke="none"/>
      <path d="M3.55 5.9 L5.2 5.9 5.2 9.55 3.55 9.55 3.55 5.9" fill="#ff0000" fill-rule="evenodd" stroke="none"/>
      <path d="M-14.9 1.85 Q-14.4 1.4 -8.75 1.85 L-3.25 2.45 -16.65 6.3 Q-15.65 2.6 -14.9 1.85" fill="#1c191d" fill-rule="evenodd" stroke="none"/>
      <path d="M-13.75 2.55 L-6.4 2.75 -14.95 4.85 Q-14.45 2.8 -13.75 2.55" fill="#ffffff" fill-rule="evenodd" stroke="none"/>
      <path d="M15.75 -8.0 Q16.55 -6.7 18.45 -1.6 19.75 1.8 19.5 1.85 L14.7 2.2 Q15.95 1.1 16.2 0.1 L16.25 -2.6 16.1 -5.45 15.75 -8.0" fill="#d4d2d4" fill-rule="evenodd" stroke="none"/>
      <path d="M12.9 2.25 L18.45 1.85 24.6 2.0 Q25.35 2.8 26.25 6.5 L12.9 2.25" fill="#1c191d" fill-rule="evenodd" stroke="none"/>
      <path d="M16.05 2.65 L23.45 2.7 Q24.45 3.7 24.55 5.05 L16.05 2.65" fill="#ffffff" fill-rule="evenodd" stroke="none"/>
      <path d="M-13.4 4.5 L-15.05 4.9 Q-14.55 3.0 -13.9 2.65 L-12.15 2.55 -13.4 4.5" fill="#ff0000" fill-rule="evenodd" stroke="none"/>
      <path d="M23.4 2.7 Q24.15 2.95 24.55 5.05 L22.9 4.6 21.65 2.55 23.4 2.7" fill="#ff0000" fill-rule="evenodd" stroke="none"/>
    </g>
  </defs>
</svg>
